!!!SOCIAL_FUNCTION:	miscellaneous songs
!!!PDT:	1958
!!!OTL: No_53_Lullaby.krn
!!!REG: Northern California
!!!LANG: Non-Tone
!!!LING_GROUP: Penutian
**kern
*staff1
=1-
*clefF4
*k[]
*M3/4
8e\L
8d\J
8d\
8r
8c\L
16A\Jk
16r
=2
8d\L
8e\J
8d\
8r
8c\L
8A\J
=3
8r
8e\
4d\
8c\L
16A\Jk
16r
=4
8d\L
8e\J
4d\
8c\L
8A\J
=5
8r
8e\
4d\
8c\L
16A\Jk
16r
=6
8d\L
8e\J
4d\
8c\L
8A\J
=7
8r
8e\
4d\
8c\L
16A\Jk
16r
==
*-
